bowl-outline.svg

<svg fill="currentColor" viewBox="0 0 24 24"><path d="M2 12v3c0 3.9 3.1 7 7 7h6c3.9 0 7-3.1 7-7v-3zm2 2h16v1c0 2.8-2.2 5-5 5H9c-2.8 0-5-2.2-5-5z"/></svg>

<svg  viewBox="0 0 24 24" fill="currentColor"><path  d="M2 12V15C2 18.9 5.1 22 9 22H15C18.9 22 22 18.9 22 15V12H2M4 14H20V15C20 17.8 17.8 20 15 20H9C6.2 20 4 17.8 4 15V14Z"/></svg>
